X:1
T:Title
%%score { ( 1 4 ) | ( 2 3 ) }
L:1/8
Q:1/4=100
M:6/8
K:G
V:1 treble nm="Grand Piano"
V:4 treble 
V:2 bass 
V:3 bass 
V:1
 [DB]2 [^C_B] [D=B]2 [DG] | A3 E3 | F2 c B2 A | B6 | B2 d c2 B | A3 E3 | F2 G B2 A | [B,G]6 | %8
w: E.~A.~Hoffman * * *||||||||
 d2 ^c dBA | G3 B3 | [Ac]2 [FA] B2 G | [FA]6 | d2 ^c dBA | G3 B3 | A2 G [DF]2 [^CE] | z3 c3 | %16
w: ||||||||
 [DB]2 [^C_B] [D=B]2 [DG] | A3 E3 | F2 c B2 A | B6 | B2 d c2 B | A3 E3 | F2 G B2 A | [B,G]6 |] %24
w: ||||||||
V:2
 [G,,G,]2 [G,,G,] [G,,G,]2 [B,,G,] | [C,E,C]3 [C,A,C]3 | [D,A,C]2 [D,A,D] [D,G,D]2 [D,F,D] | %3
 [G,D]6 | [G,D]2 [G,B,D] [F,A,D]2 [G,D] | [C,E,C]3 [C,A,C]3 | [D,A,C]2 [D,B,D] [D,G,D]2 [D,F,C] | %7
 [G,,G,]6 | [G,B,G]2 [G,_B,G] [G,G]-[G,DG][_B,DF] | [B,D]3 [G,DG]3 | %10
 [D,D]2 [D,D][K:treble] [G,DG]2 [G,B,] | [D,D]6 | [G,B,G]2 [G,_B,G] [G,G]-[G,DG][_B,DF] | %13
 [B,D]3 [G,DG]3 | [A,DF]2[K:bass] [A,E] [A,,A,]2 [A,,G,] | D,3- [D,A,]3 | %16
 [G,,G,]2 [G,,G,] [G,,G,]2 [B,,G,] | [C,E,C]3 [C,A,C]3 | [D,A,C]2 [D,A,D] [D,G,D]2 [D,F,D] | %19
 [G,D]6 | [G,D]2 [G,B,D] [F,A,D]2 [G,D] | [C,E,C]3 [C,A,C]3 | [D,A,C]2 [D,B,D] [D,G,D]2 [D,F,C] | %23
 [G,,G,]6 |] %24
V:3
 x6 | x6 | x6 | x6 | x6 | x6 | x6 | x6 | z3 .=B,3 | x6 | x3[K:treble] x3 | x6 | z3 .=B,3 | x6 | %14
 x2[K:bass] x4 | F,3 z3 | x6 | x6 | x6 | x6 | x6 | x6 | x6 | x6 |] %24
V:4
 x6 | x6 | x6 | x6 | x6 | x6 | x6 | x6 | x6 | x6 | x6 | x6 | x6 | x6 | x6 | D6 | x6 | x6 | x6 | %19
 x6 | x6 | x6 | x6 | x6 |] %24

